components/ui-node-icon/src/sql/sql.large.svg

<svg width="32" height="32" viewBox="0 0 32 32" fill="none" xmlns="http://www.w3.org/2000/svg">
  <path fill-rule="evenodd" clip-rule="evenodd" d="M6 7C3.79086 7 2 8.79086 2 11V21C2 23.2091 3.79086 25 6 25H26C28.2091 25 30 23.2091 30 21V11C30 8.79086 28.2091 7 26 7H6ZM6 13.5C6 12.1193 7.11929 11 8.5 11H10C11.1046 11 12 11.8954 12 13C12 13.2761 11.7761 13.5 11.5 13.5C11.2239 13.5 11 13.2761 11 13C11 12.4477 10.5523 12 10 12H8.5C7.67157 12 7 12.6716 7 13.5C7 14.3284 7.67157 15 8.5 15H9.5C10.8807 15 12 16.1193 12 17.5C12 18.8807 10.8807 20 9.5 20H8C6.89543 20 6 19.1046 6 18C6 17.7239 6.22386 17.5 6.5 17.5C6.77614 17.5 7 17.7239 7 18C7 18.5523 7.44772 19 8 19H9.5C10.3284 19 11 18.3284 11 17.5C11 16.6716 10.3284 16 9.5 16H8.5C7.11929 16 6 14.8807 6 13.5ZM14 13.5C14 12.1193 15.1193 11 16.5 11H17.5C18.8807 11 20 12.1193 20 13.5V17.5C20 18.1868 19.7231 18.8089 19.2748 19.2607L19.916 20.2226C20.0692 20.4524 20.0071 20.7628 19.7774 20.916C19.5476 21.0692 19.2372 21.0071 19.084 20.7774L18.4431 19.816C18.1521 19.9346 17.8337 20 17.5 20H16.5C15.1193 20 14 18.8807 14 17.5V13.5ZM19 17.5C19 17.8374 18.8886 18.1488 18.7005 18.3994L17.916 17.2227C17.7628 16.9929 17.4524 16.9308 17.2226 17.084C16.9929 17.2372 16.9308 17.5476 17.084 17.7773L17.8687 18.9544C17.7507 18.9842 17.6272 19 17.5 19H16.5C15.6716 19 15 18.3284 15 17.5V13.5C15 12.6716 15.6716 12 16.5 12H17.5C18.3284 12 19 12.6716 19 13.5V17.5ZM23 11.5C23 11.2239 22.7761 11 22.5 11C22.2239 11 22 11.2239 22 11.5V19.5V20H22.5H26.5C26.7761 20 27 19.7761 27 19.5C27 19.2239 26.7761 19 26.5 19H23V11.5Z" fill="var(--tbl--colors--icons--transformation--primary)"/>
</svg>

<svg xmlns="http://www.w3.org/2000/svg" width="32" height="32" fill="none" viewBox="0 0 32 32">
  <path fill="var(--tbl--colors--icons--transformation--primary)" fill-rule="evenodd" d="M6 7a4 4 0 0 0-4 4v10a4 4 0 0 0 4 4h20a4 4 0 0 0 4-4V11a4 4 0 0 0-4-4H6Zm0 6.5A2.5 2.5 0 0 1 8.5 11H10a2 2 0 0 1 2 2 .5.5 0 0 1-1 0 1 1 0 0 0-1-1H8.5a1.5 1.5 0 0 0 0 3h1a2.5 2.5 0 0 1 0 5H8a2 2 0 0 1-2-2 .5.5 0 0 1 1 0 1 1 0 0 0 1 1h1.5a1.5 1.5 0 0 0 0-3h-1A2.5 2.5 0 0 1 6 13.5Zm8 0a2.5 2.5 0 0 1 2.5-2.5h1a2.5 2.5 0 0 1 2.5 2.5v4c0 .687-.277 1.309-.725 1.76l.641.963a.5.5 0 0 1-.832.554l-.64-.961c-.292.119-.61.184-.944.184h-1a2.5 2.5 0 0 1-2.5-2.5v-4Zm5 4c0 .337-.111.649-.3.9l-.784-1.177a.5.5 0 1 0-.832.554l.785 1.177c-.118.03-.242.046-.369.046h-1a1.5 1.5 0 0 1-1.5-1.5v-4a1.5 1.5 0 0 1 1.5-1.5h1a1.5 1.5 0 0 1 1.5 1.5v4Zm4-6a.5.5 0 0 0-1 0V20h4.5a.5.5 0 0 0 0-1H23v-7.5Z" clip-rule="evenodd"/>
</svg>
